img/app-store.svg

<svg width="24" height="24" viewBox="0 0 24 24" fill="none" xmlns="http://www.w3.org/2000/svg">
<path d="M17.5172 12.5555C17.5078 10.957 18.232 9.75234 19.6945 8.86406C18.8766 7.69219 17.6391 7.04766 16.0078 6.92344C14.4633 6.80156 12.7734 7.82344 12.1547 7.82344C11.5008 7.82344 10.0055 6.96563 8.82891 6.96563C6.40078 7.00313 3.82031 8.90156 3.82031 12.7641C3.82031 13.9055 4.02891 15.0844 4.44609 16.2984C5.00391 17.8969 7.01484 21.8133 9.1125 21.75C10.2094 21.7242 10.9852 20.9719 12.4125 20.9719C13.7977 20.9719 14.5148 21.75 15.7383 21.75C17.8547 21.7195 19.6734 18.1594 20.2031 16.5563C17.3648 15.218 17.5172 12.6375 17.5172 12.5555ZM15.0539 5.40703C16.2422 3.99609 16.1344 2.71172 16.0992 2.25C15.0492 2.31094 13.8352 2.96484 13.1437 3.76875C12.382 4.63125 11.9344 5.69766 12.0305 6.9C13.1648 6.98672 14.2008 6.40313 15.0539 5.40703Z" fill="#1772F8"/>
</svg>

<svg width="24" height="24" fill="none" xmlns="http://www.w3.org/2000/svg"><path d="M17.517 12.556c-.01-1.599.715-2.804 2.178-3.692-.818-1.172-2.056-1.816-3.687-1.94-1.545-.122-3.235.9-3.853.9-.654 0-2.15-.858-3.326-.858C6.4 7.003 3.82 8.902 3.82 12.764c0 1.142.209 2.32.626 3.534.558 1.599 2.569 5.515 4.667 5.452 1.096-.026 1.872-.778 3.3-.778 1.385 0 2.102.778 3.325.778 2.117-.03 3.935-3.59 4.465-5.194-2.838-1.338-2.686-3.919-2.686-4zm-2.463-7.149c1.188-1.41 1.08-2.695 1.045-3.157-1.05.06-2.264.715-2.955 1.519-.762.862-1.21 1.929-1.114 3.131 1.135.087 2.17-.497 3.024-1.493z" fill="#1772F8"/></svg>
